**kern
*ICvox
*G:
*M4/4
*clefG2
r;
=1
*>Letter>A
*>Label>Intro
0.3
0.47
=2
1r
0.64
=3
1r
=4
6.18
6.34
=5
1r
6.5
=6
1r
=7
*>Letter>B
*>Label>Intro
*
12.29
12.41
=8
8%5r
12.53
=9
8%5r
12.65
=10
8%5r
12.76
=11
17.53
17.67
=12
8%5r
17.82
=13
*M3/8
4.r
=14
17.9
=15
21.9
=16
21.99
=17
*M4/4
22.08
=18
*>Letter>C
*>Label>Instrumental
25.9
=19
26.02
=20
26.14
=21
26.27
=22
34.05
=23
34.17
=24
34.3
=25
34.42
=26
*>Letter>D
*>Label>Bridge
42.09
42.33
=27
1r
42.57
=28
*>Letter>E
*>Label>Verse
46.24
46.27
46.29
46.3
46.32
46.35
=29
46.36
46.38
46.41
46.43
46.44
46.47
=30
46.49
46.5
46.53
46.55
46.58
=31
46.61
46.67
46.69
46.72
=32
54.32
54.33
54.35
54.36
54.36
54.37
54.38
54.4
54.41
=33
54.42
54.43
54.46
54.47
54.48
54.5
=34
54.51
54.52
54.54
54.55
54.56
54.57
54.59
=35
54.6
54.61
54.63
54.64
54.65
54.67
=36
54.68
54.69
54.69
54.7
54.72
54.75
=37
54.77
54.77
54.77
54.78
54.79
54.81
54.83
=38
*>Letter>D
*>Label>Bridge
66.39
66.42
66.44
66.45
66.51
66.57
=39
66.63
66.87
=40
*>Letter>C
*>Label>Chorus
.
70.61
70.64
70.65
70.66
70.67
70.68
70.69
70.7
70.71
70.72
=41
70.73
70.75
70.77
70.78
70.8
70.81
70.83
70.84
=42
70.86
4r
70.89
70.9
70.91
70.92
70.93
70.94
70.95
70.96
70.97
=43
70.98
71
71.01
71.03
71.06
71.12
.
.
.
=44
78.75
78.78
78.8
78.81
78.83
78.86
8d
=45
78.88
78.89
78.91
78.92
78.94
78.97
79
.
=46
4r
79.03
8r
79.05
79.06
79.08
79.09
79.11
=47
79.12
79.14
79.15
79.17
79.19
79.2
79.22
=48
*>Letter>E
*>Label>Verse
86.82
86.85
86.87
86.88
86.9
86.93
=49
86.94
86.96
86.99
87.01
87.02
87.05
=50
87.07
87.09
87.12
87.13
87.17
=51
87.2
87.26
87.28
87.31
=52
94.74
94.75
94.77
94.77
94.78
94.79
94.8
94.82
94.83
=53
94.84
94.85
94.87
94.88
94.89
94.91
=54
94.92
94.93
94.95
94.96
94.97
94.98
95
=55
95.01
95.02
95.04
95.05
95.06
95.08
=56
95.09
95.1
95.11
95.12
95.14
95.16
95.17
=57
95.18
95.22
95.23
95.24
=58
*>Letter>D
*>Label>Bridge
106.96
106.99
107
107.02
107.2
=59
8d]
107.23
107.26
107.32
=60
*>Letter>C
*>Label>Chorus
107.43
111.17
111.2
111.21
111.22
111.23
111.24
111.25
111.26
111.27
111.28
=61
111.29
111.3
111.32
111.33
111.35
111.36
111.37
111.39
111.41
=62
111.43
4r
111.46
111.47
111.48
111.49
111.5
111.51
111.52
111.53
111.54
111.54
=63
111.55
111.56
111.58
111.59
111.62
111.69
.
.
.
=64
119.32
119.36
119.37
119.39
119.4
119.43
8d
=65
119.45
119.46
119.48
119.5
119.51
119.54
119.57
.
=66
4r
119.6
8r
119.62
119.64
119.65
119.67
119.68
=67
119.7
119.71
119.72
119.73
119.74
119.76
=68
*>Letter>E
*>Label>Verse
127.36
127.39
127.4
127.42
127.43
127.46
=69
127.48
127.5
127.53
127.54
127.56
127.57
127.6
=70
127.62
127.64
127.67
127.68
127.71
.
4r
127.74
.
.
=71
2r
127.81
8B-
127.82
127.85
=72
135.4
135.42
4d
135.44
16cQ
135.44
135.45
135.46
8c]
135.47
135.49
.
8cq
135.5
=73
135.51
135.52
135.54
.
16cQ
135.54
135.55
135.56
135.57
135.59
.
8d
=74
135.6
135.61
135.63
8dq
135.64
135.65
135.66
135.68
.
[8d
=75
135.69
135.7
4d
135.72
[8c
135.73
135.74
135.76
135.77
=76
135.78
135.79
135.8
135.81
135.82
135.83
135.84
8B-
135.85
8c#q
135.86
135.87
=77
8d]
135.88
135.89
135.93
.
.
8r
135.94
135.95
135.97
.
=78
*>Letter>D
*>Label>Bridge
147.66
147.69
16c
147.71
147.72
147.78
147.84
8r
147.87
[8f
=79
147.9
147.93
4e
147.99
8dq
148.03
148.06
148.09
8B
148.12
=80
*>Letter>C
*>Label>Chorus
148.18
151.78
151.81
151.82
151.83
151.84
151.85
151.86
151.87
151.88
151.89
=81
151.9
151.92
151.93
151.95
151.96
151.97
151.99
152.01
152.03
=82
152.04
4r
152.07
152.08
152.09
152.1
152.11
152.12
152.13
152.14
152.15
152.16
=83
152.16
152.18
152.19
152.21
152.24
152.3
.
.
.
=84
159.95
159.98
160
160.01
160.03
160.06
8d
=85
160.07
160.09
160.1
160.12
160.13
160.17
160.2
.
=86
4r
160.23
8r
160.24
160.26
160.27
160.29
160.31
=87
160.32
160.33
160.34
160.35
160.37
160.38
160.41
=88
*>Letter>D
*>Label>Bridge
168.02
168.27
=89
2r
168.39
168.42
168.44
168.47
168.49
=90
*>Letter>C2
*>Label>Chorus
168.52
172.05
172.07
172.08
172.1
172.13
172.19
.
=91
1r
172.32
.
=92
.
2r
172.38
172.4
172.41
172.43
172.44
=93
32d
172.45
172.46
172.47
172.48
172.49
172.51
172.57
.
.
.
=94
180.05
180.11
180.12
180.14
180.15
180.17
=95
180.19
180.22
180.25
180.31
.
.
=96
2r
180.37
.
.
8B
180.38
180.4
180.41
=97
180.43
180.43
180.44
180.46
180.46
180.48
180.49
=98
*>Letter>F
*>Label>Outro
188.24
188.34
=99
1r
188.44
=100
1r
197.99
r;
*-
!!!BillboardChartDate: 1970/11/07
!!!BillboardPeak: 7
!!!BillboardWeeksOnChart: 13
!!!COC: Chicago
!!!ENC: Nathaniel Condit-Schultz
!!!EST: Awating manual error checking and editing.
!!!OTL: Does Anybody Really Know What Time It Is?
!!!RDF**chordsym: original McGill chord annotation + (implied pitch class set, with bass pitch in first position)
!!!RDF**harmony: **recip + pitch class of root + harmonic quality
!!!RDF**leadinstrument: original McGill primary instrumentation annotation
!!!RDF**phrase: newline = linebreak in original McGill transcription
!!!RDF**timestamp: McGill audio timestamp in seconds
!!!RDT: 2017/01/12/
!!!SampleActualRank: 72
!!!SampleID#: 0700
!!!SampleTargetRank: 74
